pictures/tool.svg

<svg width="24" height="24" viewBox="0 0 24 24" fill="none" xmlns="http://www.w3.org/2000/svg">
  <path d="M6 6L10.5 10.5M6 6H3L2 3L3 2L6 3V6ZM19.259 2.74101L16.6314 5.36863C16.2354 5.76465 16.0373 5.96265 15.9632 6.19098C15.8979 6.39183 15.8979 6.60817 15.9632 6.80902C16.0373 7.03735 16.2354 7.23535 16.6314 7.63137L16.8686 7.86863C17.2646 8.26465 17.4627 8.46265 17.691 8.53684C17.8918 8.6021 18.1082 8.6021 18.309 8.53684C18.5373 8.46265 18.7354 8.26465 19.1314 7.86863L21.5893 5.41072C21.854 6.05488 22 6.76039 22 7.5C22 10.5376 19.5376 13 16.5 13C16.1338 13 15.7759 12.9642 15.4298 12.8959C14.9436 12.8001 14.7005 12.7521 14.5532 12.7668C14.3965 12.7824 14.3193 12.8059 14.1805 12.8802C14.0499 12.9501 13.919 13.081 13.657 13.343L6.5 20.5C5.67157 21.3284 4.32843 21.3284 3.5 20.5C2.67157 19.6716 2.67157 18.3284 3.5 17.5L10.657 10.343C10.919 10.081 11.0499 9.95005 11.1198 9.81949C11.1941 9.68068 11.2176 9.60347 11.2332 9.44681C11.2479 9.29945 11.1999 9.05638 11.1041 8.57024C11.0358 8.22406 11 7.86621 11 7.5C11 4.46243 13.4624 2 16.5 2C17.5055 2 18.448 2.26982 19.259 2.74101ZM12.0001 14.9999L17.5 20.4999C18.3284 21.3283 19.6716 21.3283 20.5 20.4999C21.3284 19.6715 21.3284 18.3283 20.5 17.4999L15.9753 12.9753C15.655 12.945 15.3427 12.8872 15.0408 12.8043C14.6517 12.6975 14.2249 12.7751 13.9397 13.0603L12.0001 14.9999Z" stroke="#D92E15" stroke-width="2" stroke-linecap="round" stroke-linejoin="round"/>
  </svg>

<svg width="24" height="24" fill="none" xmlns="http://www.w3.org/2000/svg"><path d="m6 6 4.5 4.5M6 6H3L2 3l1-1 3 1v3Zm13.259-3.259-2.628 2.628c-.396.396-.594.594-.668.822a1 1 0 0 0 0 .618c.074.228.272.426.668.822l.238.238c.396.396.594.594.822.668a1 1 0 0 0 .618 0c.228-.074.426-.272.822-.668L21.59 5.41a5.5 5.5 0 0 1-6.16 7.485c-.485-.096-.729-.144-.876-.13a.836.836 0 0 0-.373.114c-.13.07-.261.201-.523.463L6.5 20.5a2.121 2.121 0 0 1-3-3l7.157-7.157c.262-.262.393-.393.463-.524a.836.836 0 0 0 .113-.372c.015-.148-.033-.39-.129-.877a5.5 5.5 0 0 1 8.155-5.83ZM12 15l5.5 5.5a2.121 2.121 0 0 0 3-3l-4.525-4.525a5.475 5.475 0 0 1-.934-.17c-.39-.107-.816-.03-1.101.255L12 15Z" stroke="#D92E15" stroke-width="2" stroke-linecap="round" stroke-linejoin="round"/></svg>
